dist/svg/u1F6C2.svg

<?xml version="1.0" encoding="UTF-8"?><svg id="a" xmlns="http://www.w3.org/2000/svg" viewBox="0 0 40 40"><g><rect x="3.5" y="3.5" width="33" height="33" rx="8" ry="8" fill="#007ff2"/><g><g><path d="M22.445,11.457h6.096v-1.054c0-.166-.135-.301-.301-.301h-6.31c-.31,0-.466,.375-.246,.595l.761,.761Z" fill="#fff"/><path d="M23.869,14.842c.478,.599,1.164,1.035,1.93,1.063,1.507,.055,2.746-1.151,2.746-2.646,0-.022-.006-.042-.006-.063h.003v-1.068h-6.095l-.543,.543h1.418c-.145,.639-.114,1.342,.548,2.171Z" fill="#fff"/><path d="M30.151,16.673l-8.651,10.807h7.402c.53,0,.959,.448,.959,1s-.429,1-.959,1h-7.428c0,1.196,.97,2.166,2.166,2.166h5.655c1.196,0,2.166-.97,2.166-2.166v-10.641c0-.948-.535-1.761-1.309-2.165Z" fill="#fff"/></g><g><path d="M22.129,16.421h.318" fill="#fff"/><path d="M28.395,16.407c-1.649,0-6.168,.014-6.265,.014-.239,.032-.468,.133-.656,.301-.047,.042-.094,.084-.135,.133l-2.133,2.577-2.563-2.293c-.509-.456-1.291-.412-1.747,.097-.456,.509-.412,1.291,.097,1.747l3.534,3.162c.516,.462,1.313,.402,1.755-.131l1.192-1.441v4.128l6.922-8.295Z" fill="#fff"/></g><path d="M13.966,8.355h-4.198c-.677,0-1.228,.551-1.228,1.228v4.198c0,.677,.551,1.227,1.228,1.227h.266l1.954,.912c.467,.218,1.001-.123,1.001-.638v-.274h.977c.677,0,1.228-.551,1.228-1.227v-4.198c0-.677-.551-1.228-1.228-1.228Zm.876,5.426c0,.483-.393,.875-.876,.875h-.977v-4.122c0-.273-.158-.522-.406-.638l-2.443-1.14c-.051-.024-.103-.034-.155-.049h3.981c.483,0,.876,.393,.876,.876v4.198Z" fill="#fff"/></g></g><rect y="0" width="40" height="40" fill="none"/></svg>

<svg id="Layer_1" data-name="Layer 1" xmlns="http://www.w3.org/2000/svg" viewBox="0 0 40 40"><defs><style>.cls-1{fill:#007ff2;}.cls-2{fill:#fff;}.cls-3{fill:none;}</style></defs><rect class="cls-1" x="3.5" y="3.5" width="33" height="33" rx="8"/><path class="cls-2" d="M22.445,11.457h6.1V10.4a.3.3,0,0,0-.3-.3H21.93a.348.348,0,0,0-.246.594Z"/><path class="cls-2" d="M23.869,14.842a2.584,2.584,0,0,0,4.676-1.583c0-.021-.006-.041-.006-.063h0V12.128H22.446l-.543.543h1.418A2.373,2.373,0,0,0,23.869,14.842Z"/><path class="cls-2" d="M30.151,16.673,21.5,27.48h7.4a1,1,0,0,1,0,2H21.473a2.166,2.166,0,0,0,2.166,2.166h5.655a2.166,2.166,0,0,0,2.166-2.166V18.838A2.437,2.437,0,0,0,30.151,16.673Z"/><path class="cls-2" d="M22.129,16.421h.319"/><path class="cls-2" d="M28.4,16.407c-1.649,0-6.168.013-6.266.014a1.222,1.222,0,0,0-.656.3,1.129,1.129,0,0,0-.135.133L19.2,19.433,16.642,17.14a1.237,1.237,0,0,0-1.65,1.844l3.534,3.162a1.221,1.221,0,0,0,1.755-.132l1.192-1.44V24.7Z"/><path class="cls-2" d="M13.966,8.355h-4.2A1.23,1.23,0,0,0,8.54,9.583v4.2a1.229,1.229,0,0,0,1.228,1.227h.266l1.953.911a.7.7,0,0,0,1-.637v-.274h.977a1.228,1.228,0,0,0,1.227-1.227v-4.2A1.229,1.229,0,0,0,13.966,8.355Zm.875,5.426a.877.877,0,0,1-.875.875h-.977V10.534a.705.705,0,0,0-.406-.638l-2.444-1.14a.993.993,0,0,0-.155-.049h3.982a.877.877,0,0,1,.875.876Z"/><rect class="cls-3" width="40" height="40"/></svg>
